gtk-icons/Papirus-GTK/16x16/mimetypes/x-content-blank-dvd.svg

<?xml version="1.0" encoding="UTF-8" standalone="no"?>
<svg
   xmlns:dc="http://purl.org/dc/elements/1.1/"
   xmlns:cc="http://creativecommons.org/ns#"
   xmlns:rdf="http://www.w3.org/1999/02/22-rdf-syntax-ns#"
   xmlns:svg="http://www.w3.org/2000/svg"
   xmlns="http://www.w3.org/2000/svg"
   xmlns:sodipodi="http://sodipodi.sourceforge.net/DTD/sodipodi-0.dtd"
   xmlns:inkscape="http://www.inkscape.org/namespaces/inkscape"
   width="16px"
   height="16px"
   viewBox="0 0 16 16"
   version="1.1"
   id="svg2"
   inkscape:version="0.91 r"
   sodipodi:docname="x-content-blank-dvd.svg">
  <metadata
     id="metadata17">
    <rdf:RDF>
      <cc:Work
         rdf:about="">
        <dc:format>image/svg+xml</dc:format>
        <dc:type
           rdf:resource="http://purl.org/dc/dcmitype/StillImage" />
      </cc:Work>
    </rdf:RDF>
  </metadata>
  <defs
     id="defs15" />
  <sodipodi:namedview
     pagecolor="#ffffff"
     bordercolor="#666666"
     borderopacity="1"
     objecttolerance="10"
     gridtolerance="10"
     guidetolerance="10"
     inkscape:pageopacity="0"
     inkscape:pageshadow="2"
     inkscape:window-width="1535"
     inkscape:window-height="876"
     id="namedview13"
     showgrid="false"
     inkscape:zoom="14.75"
     inkscape:cx="-4.0338983"
     inkscape:cy="8"
     inkscape:window-x="65"
     inkscape:window-y="24"
     inkscape:window-maximized="1"
     inkscape:current-layer="svg2" />
  <g
     id="surface1"
     transform="translate(-0.5,0.5)">
    <path
       style="fill:#000000;fill-opacity:0.30196102;fill-rule:nonzero;stroke:none"
       d="M 8,4.25 C 5.929688,4.25 4.25,5.929688 4.25,8 c 0,2.070312 1.679688,3.75 3.75,3.75 2.070312,0 3.75,-1.679688 3.75,-3.75 C 11.75,5.929688 10.070312,4.25 8,4.25 Z M 8,6.5 C 8.828125,6.5 9.5,7.171875 9.5,8 9.5,8.828125 8.828125,9.5 8,9.5 7.171875,9.5 6.5,8.828125 6.5,8 6.5,7.171875 7.171875,6.5 8,6.5 Z m 0,0"
       id="path5"
       inkscape:connector-curvature="0" />
    <path
       style="fill:#d1d1d1;fill-opacity:1;fill-rule:nonzero;stroke:none"
       d="M 8,0.5 C 3.84375,0.5 0.5,3.84375 0.5,8 c 0,4.15625 3.34375,7.5 7.5,7.5 4.15625,0 7.5,-3.34375 7.5,-7.5 C 15.5,3.84375 12.15625,0.5 8,0.5 Z M 8,5 c 1.65625,0 3,1.34375 3,3 0,1.65625 -1.34375,3 -3,3 C 6.34375,11 5,9.65625 5,8 5,6.34375 6.34375,5 8,5 Z m 0,0"
       id="path7"
       inkscape:connector-curvature="0" />
    <path
       style="fill:#ffffff;fill-opacity:0.4;fill-rule:nonzero;stroke:none"
       d="m 8,0.5 c 4.152344,0 7.492188,3.34375 7.492188,7.5 0,0.0625 -0.0039,0.125 -0.0039,0.1875 C 15.390625,4.121094 12.089844,0.875 8,0.875 3.910156,0.875 0.609375,4.121094 0.511719,8.1875 0.511719,8.125 0.507812,8.0625 0.507812,8 0.507812,3.84375 3.847656,0.5 8,0.5 Z M 9.480469,8.1875 C 9.488281,8.25 9.5,8.3125 9.5,8.375 9.5,9.203125 8.828125,9.875 8,9.875 7.171875,9.875 6.5,9.203125 6.5,8.375 6.5,8.3125 6.511719,8.25 6.519531,8.1875 6.613281,8.925781 7.234375,9.5 8,9.5 8.761719,9.5 9.386719,8.925781 9.480469,8.1875 Z m 0,0"
       id="path9"
       inkscape:connector-curvature="0" />
    <path
       style="fill:#000000;fill-opacity:0.30196102;fill-rule:nonzero;stroke:none"
       d="M 0.511719,7.75 C 0.511719,7.835938 0.5,7.914062 0.5,8 c 0,4.15625 3.34375,7.5 7.5,7.5 4.15625,0 7.5,-3.34375 7.5,-7.5 C 15.5,7.914062 15.48828,7.835938 15.48828,7.75 15.355469,11.785156 12.070312,15 8,15 3.929688,15 0.644531,11.785156 0.511719,7.75 Z m 0,0"
       id="path11"
       inkscape:connector-curvature="0" />
  </g>
</svg>

<?xml version="1.0" encoding="UTF-8" standalone="no"?>
<svg id="svg2" xmlns:rdf="http://www.w3.org/1999/02/22-rdf-syntax-ns#" xmlns="http://www.w3.org/2000/svg" height="16px" width="16px" version="1.1" xmlns:cc="http://creativecommons.org/ns#" xmlns:dc="http://purl.org/dc/elements/1.1/" viewBox="0 0 16 16">
 <metadata id="metadata17">
  <rdf:RDF>
   <cc:Work rdf:about="">
    <dc:format>image/svg+xml</dc:format>
    <dc:type rdf:resource="http://purl.org/dc/dcmitype/StillImage"/>
   </cc:Work>
  </rdf:RDF>
 </metadata>
 <g id="surface1" transform="translate(-.5 .5)">
  <path id="path5" d="m8 4.25c-2.0703 0-3.75 1.6797-3.75 3.75s1.6797 3.75 3.75 3.75 3.75-1.6797 3.75-3.75-1.68-3.75-3.75-3.75zm0 2.25c0.8281 0 1.5 0.6719 1.5 1.5s-0.6719 1.5-1.5 1.5-1.5-0.6719-1.5-1.5 0.6719-1.5 1.5-1.5z" fill-opacity=".30196"/>
  <path id="path7" d="m8 0.5c-4.1562 0-7.5 3.3438-7.5 7.5s3.3438 7.5 7.5 7.5 7.5-3.3438 7.5-7.5-3.344-7.5-7.5-7.5zm0 4.5c1.6562 0 3 1.3438 3 3s-1.3438 3-3 3-3-1.3438-3-3 1.3438-3 3-3z" fill="#d1d1d1"/>
  <path id="path9" d="m8 0.5c4.1523 0 7.4922 3.3438 7.4922 7.5 0 0.0625-0.0039 0.125-0.0039 0.1875-0.097-4.0664-3.398-7.3125-7.488-7.3125-4.0898 0-7.3906 3.2461-7.4883 7.3125 0.00002-0.0625-0.00389-0.125-0.00389-0.1875 0-4.1562 3.3399-7.5 7.4922-7.5zm1.4805 7.6875c0.0078 0.0625 0.0195 0.125 0.0195 0.1875 0 0.8281-0.6719 1.5-1.5 1.5s-1.5-0.6719-1.5-1.5c0-0.0625 0.0117-0.125 0.0195-0.1875 0.0938 0.7383 0.7149 1.3125 1.4805 1.3125 0.7617 0 1.3867-0.5742 1.4805-1.3125z" fill-opacity=".4" fill="#fff"/>
  <path id="path11" d="m0.51172 7.75c0 0.0859-0.01172 0.1641-0.01172 0.25 0 4.1562 3.3438 7.5 7.5 7.5s7.5-3.3438 7.5-7.5c0-0.0859-0.012-0.1641-0.012-0.25-0.133 4.035-3.418 7.25-7.488 7.25-4.0703 0-7.3555-3.215-7.4883-7.25z" fill-opacity=".30196"/>
 </g>
</svg>
